ui/icon/svg/arrow-back-circle-sharp.svg

<svg viewBox="0 0 512 512" xmlns="http://www.w3.org/2000/svg"><path d="m48 256c0 114.87 93.13 208 208 208s208-93.13 208-208-93.13-208-208-208-208 93.13-208 208zm224-80.09-63.58 64.09h149.58v32h-149.58l63.58 64.09-22.7 22.54-101.84-102.63 101.84-102.63z"/></svg>

<svg xmlns="http://www.w3.org/2000/svg" class="ionicon" viewBox="0 0 512 512"><title>Arrow Back Circle</title><path d="M48 256c0 114.87 93.13 208 208 208s208-93.13 208-208S370.87 48 256 48 48 141.13 48 256zm224-80.09L208.42 240H358v32H208.42L272 336.09l-22.7 22.54L147.46 256 249.3 153.37z"/></svg>
